X: 43
T: Cock O' the North
M: 6/8
L: 1/8
Z: Mary Lou Knack?
R: jig
K: A
|:"A"cdc cBA | cde "D"f2e | "A"cdc cBA | "E"B3 e2d \
| "A"cdc cBA | Ace "D"f2e | "A"cAc "G"B=GB | "A"A3 A3 :|
|:"A"a2e "D"f2e | "A"a2e "D"f2e | "A"cdc cBA | "E7"BcB B2e \
| "A"a2e "D"f2e | "A"a2e "D"f2e | "A"cdc "G"B=GB | "A"A3 A3 :|


